; generated by Slic3r 0.9.9 on 2014-03-15 at 15:44:27

; layer_height = 0.25
; perimeters = 1
; top_solid_layers = 3
; bottom_solid_layers = 3
; fill_density = 0.15
; perimeter_speed = 120
; infill_speed = 120
; travel_speed = 200
; nozzle_diameter = 0.5
; filament_diameter = 2.86
; extrusion_multiplier = 0.9
; perimeters extrusion width = 0.84mm
; infill extrusion width = 0.84mm
; solid infill extrusion width = 0.84mm
; top infill extrusion width = 0.84mm
; first layer extrusion width = 0.70mm

G21 ; set units to millimeters
M107
M190 S85 ; wait for bed temperature to be reached
M104 S230 ; set temperature
G28 ; home all axes
G1 Z5 F5000 ; lift nozzle
M109 S230 ; wait for temperature to be reached
G90 ; use absolute coordinates
G92 E0
M82 ; use absolute distances for extrusion
G1 F1800.000 E-1.00000
G1 Z0.850
G92 E0
G1 X126.420 Y119.195 F12000.000
G1 Z0.350
G1 F1800.000 E1.00000
G1 X127.140 Y118.515 F2547.100 E1.03191
G1 X127.670 Y118.115 E1.05330
G1 X128.230 Y117.765 E1.07458
G1 X130.130 Y116.665 E1.14531
G1 X130.420 Y116.515 E1.15583
G1 X131.020 Y116.265 E1.17677
G1 X131.630 Y116.055 E1.19756
G1 X132.260 Y115.905 E1.21842
G1 X160.110 Y110.245 E2.13405
G1 X160.430 Y110.185 E2.14454
G1 X161.060 Y110.105 E2.16500
G1 X161.700 Y110.085 E2.18563
G1 X163.790 Y110.085 E2.25297
G1 X164.780 Y110.145 E2.28493
G1 X165.430 Y110.255 E2.30617
G1 X167.480 Y110.685 E2.37365
G1 X168.460 Y110.955 E2.40640
G1 X169.100 Y111.205 E2.42854
G1 X171.000 Y112.055 E2.49560
G1 X171.870 Y112.515 E2.52731
G1 X172.410 Y112.875 E2.54822
G1 X174.380 Y114.305 E2.62665
G1 X175.130 Y114.975 E2.65905
G1 X176.760 Y116.775 E2.73729
G1 X177.190 Y117.295 E2.75903
G1 X177.390 Y117.565 E2.76985
G1 X177.750 Y118.145 E2.79185
G1 X178.950 Y120.245 E2.86977
G1 X179.230 Y120.835 E2.89081
G1 X179.460 Y121.455 E2.91212
G1 X180.110 Y123.445 E2.97957
G1 X180.210 Y123.765 E2.99037
G1 X180.360 Y124.435 E3.01249
G1 X180.460 Y125.115 E3.03464
G1 X180.700 Y127.515 E3.11235
G1 X180.700 Y128.475 E3.14328
G1 X180.460 Y130.875 E3.22099
G1 X180.360 Y131.555 E3.24313
G1 X180.210 Y132.225 E3.26525
G1 X179.460 Y134.535 E3.34350
G1 X172.510 Y152.865 E3.97509
G1 X172.250 Y153.425 E3.99499
G1 X172.100 Y153.695 E4.00494
G1 X171.600 Y154.475 E4.03479
G1 X171.010 Y155.185 E4.06453
G1 X170.790 Y155.405 E4.07455
G1 X170.340 Y155.825 E4.09439
G1 X169.860 Y156.205 E4.11411
G1 X168.090 Y157.485 E4.18449
G1 X167.520 Y157.825 E4.20587
G1 X167.230 Y157.975 E4.21639
G1 X166.940 Y158.115 E4.22676
G1 X166.330 Y158.365 E4.24800
G1 X165.700 Y158.555 E4.26920
G1 X140.370 Y165.215 E5.11304
G1 X137.630 Y165.805 E5.20334
G1 X137.300 Y165.855 E5.21410
G1 X136.290 Y165.915 E5.24669
G1 X134.200 Y165.915 E5.31403
G1 X133.190 Y165.855 E5.34663
G1 X132.860 Y165.805 E5.35738
G1 X130.480 Y165.295 E5.43580
G1 X129.840 Y165.135 E5.45706
G1 X129.210 Y164.915 E5.47856
G1 X127.000 Y163.935 E5.55645
G1 X126.700 Y163.795 E5.56711
G1 X126.110 Y163.475 E5.58874
G1 X125.820 Y163.295 E5.59974
G1 X123.600 Y161.675 E5.68828
G1 X123.100 Y161.235 E5.70974
G1 X122.630 Y160.765 E5.73115
G1 X121.230 Y159.215 E5.79845
G1 X120.800 Y158.695 E5.82019
G1 X120.600 Y158.425 E5.83101
G1 X120.240 Y157.845 E5.85301
G1 X119.040 Y155.745 E5.93093
G1 X118.760 Y155.155 E5.95197
G1 X118.530 Y154.535 E5.97328
G1 X117.880 Y152.545 E6.04073
G1 X117.780 Y152.225 E6.05153
G1 X117.630 Y151.555 E6.07365
G1 X117.530 Y150.875 E6.09579
G1 X117.290 Y148.475 E6.17350
G1 X117.290 Y147.515 E6.20443
G1 X117.560 Y144.835 E6.29122
G1 X117.720 Y143.995 E6.31877
G1 X123.570 Y123.635 E7.00128
G1 X123.820 Y122.985 E7.02372
G1 X123.970 Y122.665 E7.03510
G1 X124.300 Y122.055 E7.05745
G1 X124.490 Y121.755 E7.06889
G1 X125.990 Y119.695 E7.15099
G1 X126.355 Y119.269 E7.16906
G1 X126.900 Y119.645 F12000.000
G1 X127.110 Y119.425 F2547.100 E7.17886
G1 X127.560 Y119.025 E7.19826
G1 X128.050 Y118.655 E7.21804
G1 X128.560 Y118.325 E7.23761
G1 X130.180 Y117.385 E7.29796
G1 X130.780 Y117.075 E7.31972
G1 X131.410 Y116.815 E7.34167
G1 X132.060 Y116.625 E7.36349
G1 X132.390 Y116.545 E7.37443
G1 X160.240 Y110.885 E8.29006
G1 X160.820 Y110.795 E8.30897
G1 X161.410 Y110.745 E8.32805
G1 X164.090 Y110.745 E8.41440
G1 X164.390 Y110.765 E8.42408
G1 X164.700 Y110.795 E8.43412
G1 X165.290 Y110.895 E8.45340
G1 X167.650 Y111.395 E8.53112
G1 X168.250 Y111.575 E8.55130
G1 X168.830 Y111.805 E8.57141
G1 X170.730 Y112.655 E8.63847
G1 X171.270 Y112.925 E8.65792
G1 X172.030 Y113.405 E8.68688
G1 X173.730 Y114.635 E8.75449
G1 X174.210 Y115.015 E8.77421
G1 X174.660 Y115.435 E8.79404
G1 X176.270 Y117.215 E8.87137
G1 X176.670 Y117.695 E8.89150
G1 X177.020 Y118.205 E8.91143
G1 X177.180 Y118.475 E8.92154
G1 X178.370 Y120.545 E8.99847
G1 X178.500 Y120.815 E9.00812
G1 X178.730 Y121.365 E9.02733
G1 X179.480 Y123.645 E9.10466
G1 X179.720 Y124.555 E9.13498
G1 X179.810 Y125.185 E9.15549
G1 X180.020 Y127.265 E9.22284
G1 X180.050 Y127.845 E9.24155
G1 X180.020 Y128.725 E9.26992
G1 X179.810 Y130.805 E9.33728
G1 X179.720 Y131.435 E9.35778
G1 X179.480 Y132.345 E9.38810
G1 X178.720 Y134.655 E9.46645
G1 X171.900 Y152.625 E10.08572
G1 X171.490 Y153.445 E10.11525
G1 X171.160 Y153.955 E10.13482
G1 X170.980 Y154.195 E10.14449
G1 X170.390 Y154.885 E10.17374
G1 X169.940 Y155.295 E10.19335
G1 X169.470 Y155.675 E10.21283
G1 X167.970 Y156.765 E10.27257
G1 X167.470 Y157.095 E10.29187
G1 X166.670 Y157.515 E10.32098
G1 X166.110 Y157.745 E10.34048
G1 X165.530 Y157.915 E10.35996
G1 X140.200 Y164.575 E11.20379
G1 X137.820 Y165.095 E11.28228
G1 X137.220 Y165.205 E11.30193
G1 X136.600 Y165.255 E11.32198
G1 X133.890 Y165.255 E11.40929
G1 X133.270 Y165.205 E11.42933
G1 X132.670 Y165.095 E11.44898
G1 X130.620 Y164.655 E11.51653
G1 X130.030 Y164.505 E11.53615
G1 X129.740 Y164.415 E11.54593
G1 X129.180 Y164.185 E11.56544
G1 X127.270 Y163.335 E11.63279
G1 X126.710 Y163.065 E11.65282
G1 X126.190 Y162.745 E11.67249
G1 X124.000 Y161.155 E11.75969
G1 X123.770 Y160.965 E11.76930
G1 X123.120 Y160.325 E11.79869
G1 X121.720 Y158.775 E11.86598
G1 X121.320 Y158.295 E11.88611
G1 X121.140 Y158.045 E11.89604
G1 X120.810 Y157.515 E11.91615
G1 X119.620 Y155.445 E11.99308
G1 X119.490 Y155.175 E12.00274
G1 X119.260 Y154.625 E12.02194
G1 X118.510 Y152.345 E12.09927
G1 X118.270 Y151.435 E12.12960
G1 X118.180 Y150.805 E12.15010
G1 X117.970 Y148.725 E12.21745
G1 X117.940 Y148.145 E12.23617
G1 X117.950 Y147.555 E12.25518
G1 X118.210 Y144.925 E12.34033
G1 X118.360 Y144.145 E12.36592
G1 X124.190 Y123.845 E13.04639
G1 X124.420 Y123.245 E13.06710
G1 X124.860 Y122.395 E13.09793
G1 X125.220 Y121.855 E13.11884
G1 X126.320 Y120.345 E13.17903
G1 X126.500 Y120.105 E13.18870
G1 X126.835 Y119.719 E13.20516
G1 X127.230 Y120.255 F12000.000
G1 X127.890 Y119.605 F2547.100 E13.23501
G1 X128.370 Y119.225 E13.25473
G1 X128.890 Y118.895 E13.27458
G1 X130.780 Y117.805 E13.34487
G1 X131.340 Y117.545 E13.36476
G1 X131.630 Y117.435 E13.37475
G1 X132.220 Y117.255 E13.39463
G1 X160.370 Y111.535 E14.32012
G1 X161.170 Y111.415 E14.34618
G1 X161.700 Y111.395 E14.36327
G1 X163.790 Y111.395 E14.43060
G1 X164.610 Y111.445 E14.45707
G1 X165.160 Y111.535 E14.47503
G1 X167.210 Y111.965 E14.54251
G1 X168.030 Y112.195 E14.56995
G1 X168.560 Y112.405 E14.58832
G1 X170.460 Y113.255 E14.65538
G1 X171.190 Y113.635 E14.68190
G1 X173.570 Y115.345 E14.77632
G1 X174.190 Y115.895 E14.80302
G1 X175.970 Y117.865 E14.88856
G1 X176.140 Y118.085 E14.89752
G1 X176.470 Y118.555 E14.91602
G1 X176.610 Y118.795 E14.92497
G1 X177.650 Y120.605 E14.99223
G1 X177.910 Y121.095 E15.01010
G1 X178.020 Y121.345 E15.01890
G1 X178.210 Y121.855 E15.03644
G1 X178.860 Y123.845 E15.10389
G1 X179.070 Y124.675 E15.13147
G1 X179.150 Y125.245 E15.15001
G1 X179.400 Y127.865 E15.23481
G1 X179.400 Y128.125 E15.24319
G1 X179.360 Y128.665 E15.26063
G1 X179.120 Y131.025 E15.33706
G1 X179.070 Y131.315 E15.34654
G1 X178.860 Y132.145 E15.37413
G1 X178.210 Y134.135 E15.44158
G1 X171.280 Y152.395 E16.07083
G1 X171.160 Y152.665 E16.08035
G1 X170.880 Y153.185 E16.09938
G1 X170.370 Y153.915 E16.12807
G1 X169.980 Y154.365 E16.14725
G1 X169.550 Y154.775 E16.16640
G1 X169.080 Y155.145 E16.18567
G1 X167.580 Y156.235 E16.24541
G1 X166.800 Y156.725 E16.27509
G1 X166.240 Y156.985 E16.29498
G1 X165.660 Y157.195 E16.31485
G1 X140.030 Y163.945 E17.16877
G1 X137.410 Y164.505 E17.25509
G1 X136.850 Y164.575 E17.27328
G1 X136.290 Y164.605 E17.29134
G1 X134.200 Y164.605 E17.35868
G1 X133.640 Y164.575 E17.37675
G1 X132.800 Y164.455 E17.40409
G1 X130.480 Y163.955 E17.48055
G1 X129.960 Y163.795 E17.49808
G1 X129.440 Y163.585 E17.51615
G1 X127.530 Y162.735 E17.58350
G1 X127.030 Y162.485 E17.60151
G1 X126.320 Y162.035 E17.62860
G1 X124.410 Y160.645 E17.70471
G1 X124.000 Y160.285 E17.72228
G1 X123.610 Y159.885 E17.74028
G1 X122.020 Y158.125 E17.81670
G1 X121.850 Y157.905 E17.82566
G1 X121.520 Y157.435 E17.84416
G1 X120.340 Y155.385 E17.92037
G1 X120.080 Y154.895 E17.93824
G1 X119.780 Y154.135 E17.96457
G1 X119.130 Y152.145 E18.03202
G1 X118.920 Y151.315 E18.05960
G1 X118.870 Y151.025 E18.06908
G1 X118.630 Y148.665 E18.14551
G1 X118.590 Y148.125 E18.16295
G1 X118.590 Y147.865 E18.17133
G1 X118.860 Y145.005 E18.26389
G1 X119.000 Y144.305 E18.28689
G1 X124.730 Y124.325 E18.95656
G1 X124.920 Y123.775 E18.97531
G1 X125.150 Y123.245 E18.99393
G1 X125.280 Y122.985 E19.00329
G1 X125.580 Y122.485 E19.02208
G1 X126.850 Y120.735 E19.09174
G1 X127.169 Y120.332 E19.10829
G1 F1800.000 E18.10829
G1 Z0.850
G92 E0
G1 X161.879 Y147.581 F12000.000
G1 Z0.350
G1 F1800.000 E1.00000
G1 X162.535 Y147.058 F2122.583 E1.02703
G1 X163.353 Y147.244 E1.05405
G1 X163.717 Y148.000 E1.08108
G1 X163.353 Y148.756 E1.10811
G1 X162.535 Y148.942 E1.13513
G1 X161.879 Y148.419 E1.16216
G1 X161.879 Y147.679 E1.18601
G1 X161.594 Y146.989 F12000.000
G1 X140.203 Y148.000
G1 X139.635 Y150.302 F2122.583 E1.26238
G1 X138.259 Y151.855 E1.32924
G1 X138.063 Y152.076 E1.33875
G1 X135.847 Y152.916 E1.41513
G1 X133.494 Y152.631 E1.49150
G1 X131.543 Y151.284 E1.56788
G1 X130.441 Y149.185 E1.64425
G1 X130.441 Y146.815 E1.72062
G1 X131.543 Y144.716 E1.79699
G1 X133.494 Y143.369 E1.87337
G1 X135.847 Y143.083 E1.94974
G1 X138.063 Y143.924 E2.02612
G1 X139.635 Y145.698 E2.10249
G1 X140.179 Y147.904 E2.17569
G1 X139.526 Y148.000 F12000.000
G1 X139.036 Y149.987 F2122.583 E2.24162
G1 X137.767 Y151.419 E2.30327
G1 X137.679 Y151.519 E2.30756
G1 X135.765 Y152.245 E2.37350
G1 X133.734 Y151.998 E2.43944
G1 X132.049 Y150.835 E2.50537
G1 X131.098 Y149.023 E2.57131
G1 X131.098 Y146.977 E2.63725
G1 X131.988 Y145.283 E2.69889
G1 X132.049 Y145.165 E2.70319
G1 X133.734 Y144.002 E2.76912
G1 X135.765 Y143.755 E2.83506
G1 X137.679 Y144.481 E2.90100
G1 X139.036 Y146.013 E2.96694
G1 X139.502 Y147.904 E3.02970
G1 X140.067 Y148.373 F12000.000
G1 F1800.000 E2.02970
G1 Z0.850
G92 E0
G1 X127.020 Y144.336 F12000.000
G1 Z0.350
G1 F1800.000 E1.00000
G1 X127.962 Y142.705 F2547.100 E1.06068
G1 X129.222 Y141.305 E1.12136
G1 X130.746 Y140.198 E1.18204
G1 X132.466 Y139.432 E1.24272
G1 X134.308 Y139.040 E1.30340
G1 X136.192 Y139.040 E1.36408
G1 X138.112 Y139.449 E1.42734
G1 X162.866 Y145.953 E2.25195
G1 X161.222 Y147.264 E2.31971
G1 X161.222 Y148.736 E2.36713
G1 X162.866 Y150.047 E2.43489
G1 X138.112 Y156.551 E3.25949
G1 X136.192 Y156.960 E3.32276
G1 X134.308 Y156.960 E3.38344
G1 X132.466 Y156.568 E3.44412
G1 X130.746 Y155.802 E3.50480
G1 X129.222 Y154.695 E3.56548
G1 X127.962 Y153.295 E3.62616
G1 X127.020 Y151.664 E3.68684
G1 X126.438 Y149.873 E3.74752
G1 X126.241 Y148.000 E3.80820
G1 X126.438 Y146.127 E3.86888
G1 X126.989 Y144.429 E3.92638
G1 X126.395 Y144.134 F12000.000
G1 X126.416 Y144.067 F2037.680 E3.92864
G1 X127.427 Y142.316 E3.99377
G1 X128.780 Y140.814 E4.05890
G1 X130.415 Y139.626 E4.12403
G1 X132.262 Y138.804 E4.18916
G1 X134.171 Y138.398 E4.25203
G1 X134.239 Y138.383 E4.25429
G1 X136.261 Y138.383 E4.31942
G1 X138.264 Y138.809 E4.38541
G1 X163.534 Y145.449 E5.22720
G1 X164.898 Y146.440 E5.28151
G1 X165.405 Y148.000 E5.33437
G1 X164.898 Y149.560 E5.38722
G1 X163.534 Y150.551 E5.44153
G1 X138.264 Y157.191 E6.28332
G1 X136.261 Y157.617 E6.34931
G1 X134.239 Y157.617 E6.41444
G1 X132.262 Y157.196 E6.47957
G1 X130.415 Y156.374 E6.54470
G1 X128.780 Y155.186 E6.60983
G1 X127.427 Y153.684 E6.67496
G1 X126.416 Y151.933 E6.74009
G1 X125.792 Y150.010 E6.80522
G1 X125.580 Y148.000 E6.87035
G1 X125.792 Y145.990 E6.93548
G1 X126.364 Y144.227 E6.99518
G1 X126.463 Y144.119 F12000.000
G1 F1800.000 E5.99518
G1 Z0.850
G92 E0
G1 X134.758 Y129.515 F12000.000
G1 Z0.350
G1 F1800.000 E1.00000
G1 X133.657 Y128.000 F2122.583 E1.06035
G1 X134.758 Y126.485 E1.12069
G1 X136.539 Y127.063 E1.18103
G1 X136.539 Y128.937 E1.24138
G1 X134.851 Y129.485 E1.29855
G1 X135.009 Y128.743 F12000.000
G1 X134.469 Y128.000 F2122.583 E1.32813
G1 X135.009 Y127.257 E1.35772
G1 X135.882 Y127.541 E1.38730
G1 X135.882 Y128.459 E1.41689
G1 X135.102 Y128.712 E1.44329
G1 X134.440 Y129.071 F12000.000
G1 X159.862 Y128.000
G1 X161.306 Y125.499 F2122.583 E1.53634
G1 X164.194 Y125.499 E1.62939
G1 X165.638 Y128.000 E1.72244
G1 X164.194 Y130.501 E1.81549
G1 X161.306 Y130.501 E1.90854
G1 X159.911 Y128.085 E1.99841
G1 X160.621 Y128.000 F12000.000
G1 X161.685 Y126.156 F2122.583 E2.06702
G1 X163.815 Y126.156 E2.13562
G1 X164.879 Y128.000 E2.20423
G1 X163.815 Y129.844 E2.27283
G1 X161.685 Y129.844 E2.34144
G1 X160.670 Y128.085 E2.40687
G1 X160.117 Y127.578 F12000.000
G1 F1800.000 E1.40687
G1 Z0.850
G92 E0
G1 X131.758 Y128.000 F12000.000
G1 Z0.350
G1 F1800.000 E1.00000
G1 X132.060 Y126.580 F2547.100 E1.04679
G1 X132.913 Y125.405 E1.09358
G1 X134.213 Y124.654 E1.14194
G1 X161.804 Y119.040 E2.04909
G1 X163.692 Y119.040 E2.10991
G1 X165.534 Y119.432 E2.17059
G1 X167.254 Y120.198 E2.23127
G1 X168.778 Y121.305 E2.29195
G1 X170.038 Y122.705 E2.35263
G1 X170.980 Y124.336 E2.41331
G1 X171.562 Y126.127 E2.47399
G1 X171.759 Y128.000 E2.53467
G1 X171.562 Y129.873 E2.59535
G1 X170.980 Y131.664 E2.65603
G1 X170.038 Y133.295 E2.71671
G1 X168.778 Y134.695 E2.77739
G1 X167.254 Y135.802 E2.83807
G1 X165.534 Y136.568 E2.89875
G1 X163.692 Y136.960 E2.95943
G1 X161.804 Y136.960 E3.02025
G1 X134.213 Y131.346 E3.92740
G1 X132.913 Y130.595 E3.97577
G1 X132.060 Y129.420 E4.02256
G1 X131.778 Y128.096 E4.06617
G1 X131.086 Y128.000 F12000.000
G1 X131.446 Y126.306 F2037.680 E4.12196
G1 X132.464 Y124.905 E4.17774
G1 X133.977 Y124.031 E4.23406
G1 X161.738 Y118.383 E5.14679
G1 X163.761 Y118.383 E5.21196
G1 X165.738 Y118.804 E5.27709
G1 X167.585 Y119.626 E5.34222
G1 X169.220 Y120.814 E5.40735
G1 X170.573 Y122.316 E5.47248
G1 X171.584 Y124.067 E5.53761
G1 X172.208 Y125.990 E5.60274
G1 X172.420 Y128.000 E5.66787
G1 X172.208 Y130.010 E5.73300
G1 X171.584 Y131.933 E5.79814
G1 X170.573 Y133.684 E5.86327
G1 X169.220 Y135.186 E5.92839
G1 X167.585 Y136.374 E5.99353
G1 X165.738 Y137.196 E6.05866
G1 X163.761 Y137.617 E6.12379
G1 X161.738 Y137.617 E6.18896
G1 X133.977 Y131.969 E7.10169
G1 X132.464 Y131.095 E7.15800
G1 X131.446 Y129.694 E7.21379
G1 X131.106 Y128.096 E7.26641
G1 X131.676 Y127.712 F12000.000
G1 F1800.000 E6.26641
G1 Z0.850
G92 E0
G1 X135.416 Y139.517 F12000.000
G1 Z0.350
G1 F1800.000 E1.00000
G1 X149.077 Y153.178 F2122.583 E1.63015
G1 X149.822 Y152.982 E1.65527
G1 X136.415 Y139.575 E2.27371
G1 X137.610 Y139.829 E2.31355
G1 X150.567 Y152.786 E2.91124
G1 X151.312 Y152.591 E2.93637
G1 X138.859 Y140.137 E3.51080
G1 X140.135 Y140.472 E3.55383
G1 X152.057 Y152.395 E4.10377
G1 X152.802 Y152.199 E4.12890
G1 X141.411 Y140.808 E4.65434
G1 X142.687 Y141.143 E4.69738
G1 X153.547 Y152.003 E5.19833
G1 X154.292 Y151.808 E5.22345
G1 X143.963 Y141.478 E5.69991
G1 X145.239 Y141.814 E5.74294
G1 X155.037 Y151.612 E6.19490
G1 X155.782 Y151.416 E6.22003
G1 X146.515 Y142.149 E6.64749
G1 X147.791 Y142.484 E6.69053
G1 X156.527 Y151.220 E7.09350
G1 X157.272 Y151.025 E7.11862
G1 X149.067 Y142.819 E7.49710
G1 X150.343 Y143.155 E7.54013
G1 X158.017 Y150.829 E7.89412
G1 X158.762 Y150.633 E7.91924
G1 X151.619 Y143.490 E8.24873
G1 X152.895 Y143.825 E8.29176
G1 X159.507 Y150.437 E8.59676
G1 X160.252 Y150.242 E8.62188
G1 X154.171 Y144.161 E8.90238
G1 X155.447 Y144.496 E8.94542
G1 X160.997 Y150.046 E9.20142
G1 X161.295 Y149.403 E9.22453
