; generated by Slic3r 0.9.9 on 2014-03-15 at 17:20:06

; layer_height = 0.25
; perimeters = 1
; top_solid_layers = 3
; bottom_solid_layers = 3
; fill_density = 0.15
; perimeter_speed = 120
; infill_speed = 120
; travel_speed = 200
; nozzle_diameter = 0.5
; filament_diameter = 2.86
; extrusion_multiplier = 0.9
; perimeters extrusion width = 0.84mm
; infill extrusion width = 0.84mm
; solid infill extrusion width = 0.84mm
; top infill extrusion width = 0.84mm
; first layer extrusion width = 0.70mm

G21 ; set units to millimeters
M107
M190 S85 ; wait for bed temperature to be reached
M104 S230 ; set temperature
G28 ; home all axes
G1 Z5 F5000 ; lift nozzle
M109 S230 ; wait for temperature to be reached
G90 ; use absolute coordinates
G92 E0
M82 ; use absolute distances for extrusion
G1 F1800.000 E-1.00000
G1 Z0.850
G92 E0
G1 X16.650 Y22.370 F12000.000
G1 Z0.350
G1 F1800.000 E1.00000
G1 X16.920 Y22.170 F3056.721 E1.01083
G1 X17.480 Y21.820 E1.03210
G1 X19.380 Y20.720 E1.10284
G1 X19.670 Y20.570 E1.11336
G1 X20.570 Y20.210 E1.14459
G1 X21.200 Y20.030 E1.16570
G1 X49.360 Y14.300 E2.09156
G1 X49.680 Y14.240 E2.10205
G1 X50.310 Y14.160 E2.12251
G1 X50.950 Y14.140 E2.14314
G1 X106.540 Y14.140 E3.93418
G1 X107.530 Y14.200 E3.96613
G1 X108.180 Y14.310 E3.98737
G1 X110.230 Y14.740 E4.05486
G1 X111.210 Y15.010 E4.08761
G1 X111.850 Y15.260 E4.10974
G1 X113.750 Y16.110 E4.17681
G1 X114.620 Y16.570 E4.20851
G1 X115.160 Y16.930 E4.22942
G1 X116.860 Y18.160 E4.29703
G1 X117.130 Y18.360 E4.30785
G1 X117.640 Y18.800 E4.32955
G1 X117.880 Y19.030 E4.34026
G1 X119.510 Y20.830 E4.41850
G1 X119.940 Y21.350 E4.44024
G1 X120.140 Y21.620 E4.45107
G1 X120.500 Y22.200 E4.47306
G1 X121.700 Y24.300 E4.55099
G1 X121.980 Y24.890 E4.57203
G1 X122.210 Y25.510 E4.59333
G1 X122.860 Y27.500 E4.66078
G1 X123.040 Y28.160 E4.68282
G1 X123.170 Y28.830 E4.70481
G1 X123.210 Y29.170 E4.71584
G1 X123.450 Y31.570 E4.79355
G1 X123.460 Y31.890 E4.80387
G1 X123.450 Y32.530 E4.82449
G1 X123.170 Y35.270 E4.91323
G1 X122.960 Y36.280 E4.94647
G1 X122.080 Y38.950 E5.03704
G1 X115.370 Y56.640 E5.64661
G1 X115.000 Y57.480 E5.67619
G1 X114.700 Y58.010 E5.69581
G1 X114.170 Y58.760 E5.72540
G1 X113.770 Y59.220 E5.74504
G1 X113.340 Y59.660 E5.76486
G1 X113.110 Y59.860 E5.77468
G1 X59.610 Y105.750 E8.04561
G1 X59.110 Y106.150 E8.06624
G1 X57.340 Y107.430 E8.13661
G1 X56.770 Y107.770 E8.15800
G1 X56.190 Y108.060 E8.17889
G1 X55.880 Y108.190 E8.18972
G1 X55.580 Y108.310 E8.20013
G1 X54.950 Y108.500 E8.22133
G1 X29.620 Y115.160 E9.06516
G1 X26.880 Y115.750 E9.15547
G1 X26.550 Y115.800 E9.16622
G1 X25.540 Y115.860 E9.19882
G1 X23.450 Y115.860 E9.26616
G1 X22.440 Y115.800 E9.29875
G1 X22.110 Y115.750 E9.30951
G1 X19.410 Y115.170 E9.39848
G1 X18.770 Y114.980 E9.41999
G1 X18.160 Y114.730 E9.44123
G1 X15.950 Y113.740 E9.51925
G1 X15.360 Y113.420 E9.54088
G1 X15.070 Y113.240 E9.55187
G1 X12.850 Y111.620 E9.64042
G1 X12.350 Y111.180 E9.66188
G1 X11.880 Y110.710 E9.68329
G1 X10.260 Y108.910 E9.76131
G1 X9.850 Y108.370 E9.78316
G1 X9.490 Y107.790 E9.80515
G1 X8.450 Y105.980 E9.87241
G1 X8.290 Y105.690 E9.88308
G1 X8.010 Y105.100 E9.90412
G1 X7.780 Y104.480 E9.92543
G1 X7.130 Y102.490 E9.99288
G1 X6.950 Y101.830 E10.01492
G1 X6.820 Y101.160 E10.03691
G1 X6.570 Y98.740 E10.11529
G1 X6.530 Y97.940 E10.14110
G1 X6.530 Y52.050 E11.61961
G1 X6.570 Y51.250 E11.64541
G1 X6.810 Y48.890 E11.72184
G1 X6.970 Y48.050 E11.74939
G1 X12.720 Y28.020 E12.42080
G1 X12.940 Y27.360 E12.44321
G1 X13.220 Y26.720 E12.46572
G1 X13.550 Y26.110 E12.48806
G1 X13.740 Y25.810 E12.49950
G1 X15.040 Y24.020 E12.57078
G1 X15.240 Y23.750 E12.58161
G1 X15.670 Y23.250 E12.60285
G1 X16.140 Y22.790 E12.62404
G1 X16.572 Y22.430 E12.64215
G1 X17.050 Y22.890 F12000.000
G1 X17.810 Y22.380 F3056.721 E12.67164
G1 X19.430 Y21.440 E12.73199
G1 X20.030 Y21.130 E12.75375
G1 X20.660 Y20.870 E12.77570
G1 X21.640 Y20.600 E12.80845
G1 X49.490 Y14.940 E13.72408
G1 X50.360 Y14.820 E13.75238
G1 X50.660 Y14.800 E13.76207
G1 X106.840 Y14.800 E15.57211
G1 X107.450 Y14.850 E15.59183
G1 X108.040 Y14.950 E15.61111
G1 X110.090 Y15.380 E15.67859
G1 X110.400 Y15.450 E15.68883
G1 X111.000 Y15.630 E15.70901
G1 X111.580 Y15.860 E15.72912
G1 X113.480 Y16.710 E15.79618
G1 X114.020 Y16.980 E15.81563
G1 X114.780 Y17.460 E15.84459
G1 X116.480 Y18.690 E15.91220
G1 X116.960 Y19.070 E15.93192
G1 X117.410 Y19.490 E15.95175
G1 X119.020 Y21.270 E16.02908
G1 X119.420 Y21.750 E16.04921
G1 X119.770 Y22.260 E16.06914
G1 X119.930 Y22.530 E16.07925
G1 X121.120 Y24.600 E16.15618
G1 X121.250 Y24.870 E16.16583
G1 X121.370 Y25.140 E16.17535
G1 X121.580 Y25.710 E16.19492
G1 X122.230 Y27.700 E16.26237
G1 X122.400 Y28.300 E16.28247
G1 X122.470 Y28.610 E16.29270
G1 X122.560 Y29.240 E16.31321
G1 X122.770 Y31.320 E16.38056
G1 X122.800 Y31.900 E16.39928
G1 X122.770 Y32.780 E16.42764
G1 X122.560 Y34.860 E16.49500
G1 X122.470 Y35.490 E16.51550
G1 X122.320 Y36.100 E16.53574
G1 X121.470 Y38.710 E16.62418
G1 X114.760 Y56.400 E17.23375
G1 X114.520 Y56.960 E17.25338
G1 X114.080 Y57.760 E17.28280
G1 X113.730 Y58.260 E17.30246
G1 X113.340 Y58.730 E17.32214
G1 X113.130 Y58.950 E17.33194
G1 X112.680 Y59.360 E17.35155
G1 X59.180 Y105.250 E19.62248
G1 X58.720 Y105.620 E19.64150
G1 X57.220 Y106.710 E19.70124
G1 X56.460 Y107.190 E19.73020
G1 X55.640 Y107.580 E19.75946
G1 X55.360 Y107.690 E19.76915
G1 X54.780 Y107.860 E19.78862
G1 X29.120 Y114.600 E20.64339
G1 X26.770 Y115.100 E20.72080
G1 X26.160 Y115.180 E20.74062
G1 X25.850 Y115.200 E20.75063
G1 X23.140 Y115.200 E20.83794
G1 X22.520 Y115.150 E20.85799
G1 X21.920 Y115.040 E20.87764
G1 X19.870 Y114.600 E20.94519
G1 X18.990 Y114.360 E20.97458
G1 X18.430 Y114.130 E20.99408
G1 X16.240 Y113.150 E21.07138
G1 X15.960 Y113.010 E21.08147
G1 X15.440 Y112.690 E21.10114
G1 X13.250 Y111.100 E21.18834
G1 X13.020 Y110.910 E21.19795
G1 X12.370 Y110.270 E21.22734
G1 X10.770 Y108.490 E21.30445
G1 X10.390 Y107.990 E21.32468
G1 X10.060 Y107.460 E21.34480
G1 X8.870 Y105.390 E21.42173
G1 X8.620 Y104.850 E21.44090
G1 X8.410 Y104.280 E21.46047
G1 X7.760 Y102.290 E21.52792
G1 X7.590 Y101.690 E21.54801
G1 X7.520 Y101.380 E21.55825
G1 X7.430 Y100.750 E21.57875
G1 X7.220 Y98.670 E21.64611
G1 X7.190 Y97.940 E21.66965
G1 X7.190 Y52.050 E23.14816
G1 X7.220 Y51.320 E23.17170
G1 X7.460 Y48.980 E23.24749
G1 X7.550 Y48.460 E23.26449
G1 X7.680 Y47.950 E23.28145
G1 X13.440 Y27.900 E23.95356
G1 X13.670 Y27.300 E23.97426
G1 X13.960 Y26.720 E23.99515
G1 X14.110 Y26.450 E24.00510
G1 X14.470 Y25.910 E24.02601
G1 X15.750 Y24.160 E24.09587
G1 X16.360 Y23.480 E24.12530
G1 X16.973 Y22.951 E24.15138
G1 X17.620 Y23.280 F12000.000
G1 X18.140 Y22.950 F3056.721 E24.17122
G1 X20.030 Y21.860 E24.24151
G1 X20.590 Y21.600 E24.26141
G1 X20.880 Y21.490 E24.27140
G1 X21.470 Y21.310 E24.29127
G1 X49.620 Y15.590 E25.21676
G1 X50.420 Y15.470 E25.24282
G1 X50.950 Y15.450 E25.25991
G1 X106.540 Y15.450 E27.05094
G1 X107.360 Y15.500 E27.07741
G1 X107.910 Y15.590 E27.09537
G1 X109.960 Y16.020 E27.16285
G1 X110.780 Y16.250 E27.19029
G1 X111.310 Y16.460 E27.20866
G1 X113.210 Y17.310 E27.27572
G1 X113.940 Y17.690 E27.30224
G1 X116.090 Y19.230 E27.38744
G1 X116.530 Y19.570 E27.40536
G1 X116.940 Y19.950 E27.42337
G1 X118.720 Y21.920 E27.50891
G1 X118.890 Y22.140 E27.51787
G1 X119.220 Y22.610 E27.53637
G1 X120.400 Y24.660 E27.61258
G1 X120.660 Y25.150 E27.63045
G1 X120.960 Y25.910 E27.65678
G1 X121.610 Y27.900 E27.72423
G1 X121.760 Y28.450 E27.74259
G1 X121.870 Y29.020 E27.76130
G1 X122.150 Y31.920 E27.85516
G1 X122.150 Y32.180 E27.86354
G1 X122.110 Y32.720 E27.88099
G1 X121.870 Y35.080 E27.95742
G1 X121.760 Y35.650 E27.97612
G1 X121.610 Y36.200 E27.99449
G1 X120.960 Y38.190 E28.06193
G1 X114.140 Y56.170 E28.68150
G1 X113.900 Y56.730 E28.70113
G1 X113.620 Y57.260 E28.72044
G1 X113.280 Y57.760 E28.73992
G1 X112.900 Y58.230 E28.75939
G1 X112.480 Y58.660 E28.77876
G1 X112.250 Y58.860 E28.78858
G1 X58.750 Y104.750 E31.05951
G1 X58.330 Y105.090 E31.07692
G1 X56.830 Y106.180 E31.13666
G1 X56.050 Y106.670 E31.16634
G1 X55.490 Y106.930 E31.18623
G1 X54.610 Y107.230 E31.21618
G1 X28.990 Y113.960 E32.06963
G1 X26.940 Y114.400 E32.13718
G1 X26.100 Y114.520 E32.16452
G1 X25.540 Y114.550 E32.18259
G1 X23.450 Y114.550 E32.24992
G1 X22.610 Y114.490 E32.27706
G1 X22.050 Y114.400 E32.29533
G1 X20.000 Y113.960 E32.36288
G1 X19.730 Y113.900 E32.37179
G1 X19.210 Y113.740 E32.38932
G1 X18.690 Y113.530 E32.40739
G1 X16.780 Y112.680 E32.47475
G1 X16.280 Y112.430 E32.49276
G1 X15.570 Y111.980 E32.51984
G1 X13.660 Y110.590 E32.59595
G1 X13.450 Y110.410 E32.60486
G1 X12.860 Y109.830 E32.63152
G1 X11.270 Y108.070 E32.70793
G1 X10.770 Y107.380 E32.73539
G1 X9.590 Y105.330 E32.81160
G1 X9.330 Y104.840 E32.82947
G1 X9.030 Y104.080 E32.85579
G1 X8.380 Y102.090 E32.92324
G1 X8.170 Y101.260 E32.95083
G1 X8.120 Y100.970 E32.96031
G1 X7.880 Y98.610 E33.03674
G1 X7.840 Y97.940 E33.05836
G1 X7.840 Y52.050 E34.53687
G1 X7.880 Y51.380 E34.55850
G1 X8.110 Y49.060 E34.63361
G1 X8.310 Y48.130 E34.66426
G1 X14.070 Y28.100 E35.33575
G1 X14.400 Y27.300 E35.36363
G1 X14.530 Y27.040 E35.37300
G1 X14.830 Y26.540 E35.39178
G1 X16.100 Y24.790 E35.46145
G1 X16.480 Y24.310 E35.48117
G1 X16.690 Y24.090 E35.49097
G1 X17.140 Y23.660 E35.51103
G1 X17.543 Y23.341 E35.52758
G1 F1800.000 E34.52758
G1 Z0.850
G92 E0
G1 X51.129 Y51.635 F12000.000
G1 Z0.350
G1 F1800.000 E1.00000
G1 X51.785 Y51.112 F2547.268 E1.02703
G1 X52.603 Y51.299 E1.05405
G1 X52.967 Y52.055 E1.08108
G1 X52.603 Y52.811 E1.10811
G1 X51.785 Y52.997 E1.13513
G1 X51.129 Y52.474 E1.16216
G1 X51.129 Y51.734 E1.18601
G1 X50.844 Y51.043 F12000.000
G1 X29.453 Y52.055
G1 X28.885 Y54.356 F2547.268 E1.26238
G1 X27.509 Y55.910 E1.32924
G1 X27.313 Y56.131 E1.33875
G1 X25.097 Y56.971 E1.41513
G1 X22.744 Y56.686 E1.49150
G1 X20.793 Y55.339 E1.56788
G1 X19.691 Y53.240 E1.64425
G1 X19.691 Y50.870 E1.72062
G1 X20.793 Y48.771 E1.79699
G1 X22.744 Y47.424 E1.87337
G1 X25.097 Y47.138 E1.94974
G1 X27.313 Y47.979 E2.02612
G1 X28.885 Y49.753 E2.10249
G1 X29.429 Y51.959 E2.17569
G1 X28.776 Y52.055 F12000.000
G1 X28.286 Y54.042 F2547.268 E2.24162
G1 X27.017 Y55.474 E2.30327
G1 X26.929 Y55.574 E2.30756
G1 X25.015 Y56.299 E2.37350
G1 X22.984 Y56.053 E2.43944
G1 X21.299 Y54.890 E2.50537
G1 X20.348 Y53.078 E2.57131
G1 X20.348 Y51.031 E2.63725
G1 X21.238 Y49.337 E2.69889
G1 X21.299 Y49.219 E2.70319
G1 X22.984 Y48.057 E2.76912
G1 X25.015 Y47.810 E2.83506
G1 X26.929 Y48.536 E2.90100
G1 X28.286 Y50.068 E2.96694
G1 X28.752 Y51.959 E3.02970
G1 X29.317 Y52.428 F12000.000
G1 F1800.000 E2.02970
G1 Z0.850
G92 E0
G1 X19.996 Y44.253 F12000.000
G1 Z0.350
G1 F1800.000 E1.00000
G1 X21.716 Y43.487 F3056.721 E1.06068
G1 X23.558 Y43.095 E1.12136
G1 X25.442 Y43.095 E1.18204
G1 X27.362 Y43.503 E1.24530
G1 X52.116 Y50.008 E2.06991
G1 X50.472 Y51.319 E2.13767
G1 X50.472 Y52.791 E2.18509
G1 X52.116 Y54.102 E2.25285
G1 X27.362 Y60.606 E3.07745
G1 X25.442 Y61.014 E3.14072
G1 X23.558 Y61.014 E3.20140
G1 X21.716 Y60.623 E3.26208
G1 X19.996 Y59.857 E3.32276
G1 X18.472 Y58.750 E3.38344
G1 X17.212 Y57.350 E3.44412
G1 X16.270 Y55.719 E3.50480
G1 X15.688 Y53.928 E3.56548
G1 X15.491 Y52.055 E3.62616
G1 X15.688 Y50.182 E3.68684
G1 X16.270 Y48.391 E3.74752
G1 X17.212 Y46.759 E3.80820
G1 X18.472 Y45.360 E3.86888
G1 X19.916 Y44.311 E3.92638
G1 X19.609 Y43.722 F12000.000
G1 X19.665 Y43.681 F2445.377 E3.92864
G1 X21.512 Y42.858 E3.99377
G1 X23.489 Y42.438 E4.05890
G1 X25.511 Y42.438 E4.12403
G1 X27.514 Y42.864 E4.19002
G1 X52.784 Y49.504 E5.03181
G1 X54.148 Y50.494 E5.08612
G1 X54.655 Y52.055 E5.13898
G1 X54.148 Y53.615 E5.19183
G1 X52.784 Y54.606 E5.24614
G1 X27.514 Y61.246 E6.08793
G1 X25.511 Y61.671 E6.15392
G1 X23.489 Y61.671 E6.21905
G1 X21.512 Y61.251 E6.28418
G1 X19.665 Y60.429 E6.34931
G1 X18.030 Y59.241 E6.41444
G1 X16.677 Y57.738 E6.47957
G1 X15.666 Y55.988 E6.54470
G1 X15.042 Y54.065 E6.60983
G1 X14.830 Y52.055 E6.67496
G1 X15.042 Y50.044 E6.74009
G1 X15.666 Y48.122 E6.80522
G1 X16.677 Y46.371 E6.87035
G1 X18.030 Y44.869 E6.93548
G1 X19.529 Y43.780 E6.99518
G1 X19.672 Y43.750 F12000.000
G1 F1800.000 E5.99518
G1 Z0.850
G92 E0
G1 X24.008 Y33.570 F12000.000
G1 Z0.350
G1 F1800.000 E1.00000
G1 X22.907 Y32.055 F2547.268 E1.06035
G1 X24.008 Y30.540 E1.12069
G1 X25.789 Y31.118 E1.18103
G1 X25.789 Y32.991 E1.24138
G1 X24.101 Y33.540 E1.29855
G1 X24.259 Y32.798 F12000.000
G1 X23.719 Y32.055 F2547.268 E1.32813
G1 X24.259 Y31.312 E1.35772
G1 X25.132 Y31.596 E1.38730
G1 X25.132 Y32.514 E1.41689
G1 X24.352 Y32.767 E1.44329
G1 X23.690 Y33.126 F12000.000
G1 X49.112 Y32.055
G1 X50.556 Y29.554 F2547.268 E1.53634
G1 X53.444 Y29.554 E1.62939
G1 X54.888 Y32.055 E1.72244
G1 X53.444 Y34.556 E1.81549
G1 X50.556 Y34.556 E1.90854
G1 X49.161 Y32.140 E1.99841
G1 X49.871 Y32.055 F12000.000
G1 X50.935 Y30.211 F2547.268 E2.06702
G1 X53.065 Y30.211 E2.13562
G1 X54.129 Y32.055 E2.20423
G1 X53.065 Y33.899 E2.27283
G1 X50.935 Y33.899 E2.34144
G1 X49.920 Y32.140 E2.40687
G1 X49.367 Y31.632 F12000.000
G1 F1800.000 E1.40687
G1 Z0.850
G92 E0
G1 X60.230 Y35.719 F12000.000
G1 Z0.350
G1 F1800.000 E1.00000
G1 X59.288 Y37.350 F3056.721 E1.06068
G1 X58.028 Y38.750 E1.12136
G1 X56.504 Y39.857 E1.18204
G1 X54.784 Y40.623 E1.24272
G1 X52.942 Y41.014 E1.30340
G1 X51.054 Y41.014 E1.36422
G1 X23.463 Y35.401 E2.27137
G1 X22.163 Y34.650 E2.31973
G1 X21.310 Y33.475 E2.36652
G1 X21.008 Y32.055 E2.41331
G1 X21.310 Y30.634 E2.46010
G1 X22.163 Y29.459 E2.50689
G1 X23.463 Y28.709 E2.55525
G1 X51.054 Y23.095 E3.46240
G1 X52.942 Y23.095 E3.52322
G1 X54.784 Y23.487 E3.58390
G1 X56.504 Y24.253 E3.64458
G1 X58.028 Y25.360 E3.70526
G1 X59.288 Y26.759 E3.76594
G1 X60.230 Y28.390 E3.82662
G1 X60.812 Y30.182 E3.88730
G1 X61.009 Y32.055 E3.94798
G1 X60.812 Y33.928 E4.00866
G1 X60.261 Y35.625 E4.06617
G1 X60.834 Y35.988 F12000.000
G1 X59.823 Y37.738 F2445.377 E4.13130
G1 X58.470 Y39.241 E4.19643
G1 X56.835 Y40.429 E4.26156
G1 X54.988 Y41.251 E4.32669
G1 X53.011 Y41.671 E4.39182
G1 X50.988 Y41.671 E4.45700
G1 X23.227 Y36.023 E5.36972
G1 X21.714 Y35.149 E5.42604
G1 X20.696 Y33.748 E5.48183
G1 X20.336 Y32.055 E5.53761
G1 X20.696 Y30.361 E5.59340
G1 X21.714 Y28.960 E5.64919
G1 X23.227 Y28.086 E5.70550
G1 X50.988 Y22.438 E6.61823
G1 X53.011 Y22.438 E6.68341
G1 X54.988 Y22.858 E6.74854
G1 X56.835 Y23.681 E6.81367
G1 X58.470 Y24.869 E6.87880
G1 X59.823 Y26.371 E6.94393
G1 X60.834 Y28.122 E7.00906
G1 X61.458 Y30.044 E7.07419
G1 X61.670 Y32.055 E7.13932
G1 X61.458 Y34.065 E7.20445
G1 X60.864 Y35.894 E7.26640
G1 X60.178 Y36.034 F12000.000
G1 F1800.000 E6.26640
G1 Z0.850
G92 E0
G1 X51.077 Y50.227 F12000.000
G1 Z0.350
G1 F1800.000 E1.00000
G1 X50.554 Y50.645 F2547.268 E1.02183
G1 X49.801 Y49.892 E1.05656
G1 X48.525 Y49.556 E1.09959
G1 X50.030 Y51.062 E1.16903
G1 X49.996 Y51.968 E1.19861
G1 X47.249 Y49.221 E1.32531
G1 X45.973 Y48.886 E1.36834
G1 X49.996 Y52.909 E1.55390
G1 X50.992 Y53.905 F12000.000
G1 X50.545 Y53.458 F2547.268 E1.57450
G1 X50.247 Y54.101 E1.59761
G1 X44.697 Y48.551 E1.85361
G1 X43.421 Y48.215 E1.89664
G1 X49.502 Y54.296 E2.17715
G1 X48.757 Y54.492 E2.20227
G1 X42.145 Y47.880 E2.50726
G1 X40.869 Y47.545 E2.55030
G1 X48.012 Y54.688 E2.87979
G1 X47.267 Y54.884 E2.90491
G1 X39.593 Y47.209 E3.25889
G1 X38.317 Y46.874 E3.30193
G1 X46.522 Y55.079 E3.68041
G1 X45.777 Y55.275 E3.70553
G1 X37.041 Y46.539 E4.10850
G1 X35.765 Y46.204 E4.15153
G1 X45.032 Y55.471 E4.57900
G1 X44.287 Y55.667 E4.60413
G1 X34.489 Y45.868 E5.05609
G1 X33.213 Y45.533 E5.09912
G1 X43.542 Y55.862 E5.57558
G1 X42.797 Y56.058 E5.60070
G1 X31.937 Y45.198 E6.10165
G1 X30.661 Y44.863 E6.14469
G1 X42.052 Y56.254 E6.67013
G1 X41.307 Y56.450 E6.69525
G1 X29.385 Y44.527 E7.24520
G1 X28.109 Y44.192 E7.28823
G1 X40.562 Y56.645 E7.86266
G1 X39.817 Y56.841 E7.88779
G1 X26.860 Y43.883 E8.48548
G1 X25.665 Y43.630 E8.52532
G1 X39.072 Y57.037 E9.14376
G1 X38.327 Y57.233 E9.16888
G1 X24.666 Y43.571 E9.79903
G1 X16.083 Y50.981 F12000.000
G1 X20.049 Y54.947 F2547.268 E9.98200
G1 X19.215 Y53.172 E10.04597
G1 X16.197 Y50.155 E10.18516
G1 X16.428 Y49.445 E10.20951
G1 X19.215 Y52.231 E10.33806
G1 X19.215 Y51.291 E10.36874
G1 X16.659 Y48.734 E10.48665
